X: 1
T: Bellmans polska
R: Polska
O: G\"astrikland
S: Efter Gustaf Jernberg
N: Jernberg sa sig ha l\aaten efter en gammal h\"alsingespelman vid namn Bellman.
F: http://www.folkwiki.se/pub/cache/Bellmans_polska_0827e2.latin.abc
M: 3/4
L: 1/16
K: D
A2- |\
A3d d2d2 e2d2 | A2f2 f2ef g2f2 | A3d d2d2 e2d2 | A2f2 f2ef g2f2 | f3a a2a2 b2a2 |
a3g f2g2 f4 | e3f g2b2 a2g2 | f3e d2c2 d2B2 | B2AG F2EF A2A2 | A,2D2 D6 :|
|: EC |\
D4 a4 a3f | gfga2 <b2a g2f2 | e3f g2b2 a2g2 | f3e d2c2 d2B2 | B2A^G G2A2A4 |
D4 a4 a3f | =gfga2 <b2a g2f2 | e3f g2b2 a2g2 | f3e d2c2 d2B2 | B2AG F2EF A2A2 | A,2D2 D6 :|
